icons/gluten_free.svg

<svg width="48" height="48" viewBox="0 0 48 48" fill="none" xmlns="http://www.w3.org/2000/svg">
<path fill-rule="evenodd" clip-rule="evenodd" d="M36.0013 37.4155C32.8166 40.2664 28.6107 42 24 42C14.0589 42 6 33.9411 6 24C6 19.262 7.83061 14.9515 10.8231 11.7373L13.7929 14.7071C14.1834 15.0976 14.8166 15.0976 15.2071 14.7071C15.5976 14.3166 15.5976 13.6834 15.2071 13.2929L12.265 10.3508C15.4161 7.63912 19.5166 6 24 6C33.9411 6 42 14.0589 42 24C42 28.6107 40.2664 32.8166 37.4155 36.0013L31.6221 30.2079C31.8685 29.4894 32 28.7243 32 27.9385V26C32 25.6593 31.8266 25.3421 31.5398 25.1582C31.457 25.1051 31.3681 25.0653 31.276 25.0388C31.7436 24.0927 32 23.0358 32 21.9385V20C32 19.6593 31.8266 19.3421 31.5398 19.1582C31.253 18.9743 30.8923 18.9491 30.5827 19.0912L30.5236 19.1184C30.8329 18.3241 31 17.4658 31 16.5794V15C31 14.6711 30.8383 14.3632 30.5675 14.1766C30.2966 13.99 29.9514 13.9484 29.644 14.0655L27.508 14.8792C27.4241 14.9112 27.341 14.9447 27.2588 14.9796C27.2219 13.2042 26.5764 11.4692 25.3903 10.0855L24.7593 9.34921C24.5693 9.12756 24.2919 9 24 9C23.7081 9 23.4307 9.12756 23.2407 9.34921L22.6097 10.0855C21.4236 11.4692 20.7781 13.2042 20.7412 14.9796C20.659 14.9447 20.5759 14.9112 20.492 14.8792L18.356 14.0655C18.0486 13.9484 17.7034 13.99 17.4325 14.1766C17.1617 14.3632 17 14.6711 17 15V16.5794C17 17.4658 17.1671 18.3241 17.4764 19.1184L17.4173 19.0912C17.1077 18.9491 16.747 18.9743 16.4602 19.1582C16.1734 19.3421 16 19.6593 16 20V21.9385C16 23.0358 16.2564 24.0927 16.724 25.0388C16.6319 25.0653 16.543 25.1051 16.4602 25.1582C16.1734 25.3421 16 25.6593 16 26V27.9385C16 30.6738 17.5932 33.1585 20.0789 34.2999L23 35.6412V38H25V35.6412L27.9211 34.2999C29.0301 33.7907 29.9614 33.014 30.6529 32.0671L36.0013 37.4155ZM44 24C44 35.0457 35.0457 44 24 44C12.9543 44 4 35.0457 4 24C4 12.9543 12.9543 4 24 4C35.0457 4 44 12.9543 44 24ZM24 11.542C25.092 12.9094 25.5026 14.6977 25.1211 16.4007C24.6873 16.8226 24.3106 17.2983 24 17.815C23.6894 17.2983 23.3127 16.8226 22.8789 16.4007C22.4974 14.6977 22.908 12.9094 24 11.542ZM23 21.5489V21.4206C23 19.3459 21.7188 17.4868 19.78 16.7482L19 16.4511V16.5794C19 18.6541 20.2812 20.5132 22.22 21.2518L23 21.5489ZM25 21.5489L25.78 21.2518C27.7188 20.5132 29 18.6541 29 16.5794V16.4511L28.22 16.7482C26.2812 17.4868 25 19.3459 25 21.4206V21.5489ZM25 26.1071C25 24.735 25.7992 23.4885 27.0462 22.9159L30 21.5596V21.9385C30 23.8923 28.862 25.6671 27.0865 26.4824L25 27.4404V26.1071ZM20.0865 22.5176C21.862 23.3329 23 25.1077 23 27.0615V27.4404L20.9135 26.4824C19.138 25.6671 18 23.8923 18 21.9385V21.5596L20.0865 22.5176ZM23 33.4404V33.0615C23 31.1077 21.862 29.3329 20.0865 28.5176L18 27.5596V27.9385C18 29.8923 19.138 31.6671 20.9135 32.4824L23 33.4404ZM25 33.4404L27.0865 32.4824C28.862 31.6671 30 29.8923 30 27.9385V27.5596L27.0462 28.9159C25.7992 29.4885 25 30.735 25 32.1071V33.4404Z" fill="black"/>
</svg>

<svg
  xmlns="http://www.w3.org/2000/svg"
  width="24"
  height="24"
  viewBox="0 0 24 24"
  fill="none"
  stroke="currentColor"
  stroke-width="2"
  stroke-linecap="round"
  stroke-linejoin="round"
>
  <path
    fill-rule="evenodd"
    d="M36.001 37.416A17.93 17.93 0 0 1 24 42c-9.941 0-18-8.059-18-18 0-4.738 1.83-9.048 4.823-12.263l2.97 2.97a1 1 0 0 0 1.414-1.414l-2.942-2.942A17.93 17.93 0 0 1 24 6c9.941 0 18 8.059 18 18 0 4.61-1.734 8.817-4.584 12.001l-5.794-5.793a7 7 0 0 0 .378-2.27V26a1 1 0 0 0-.724-.961 7 7 0 0 0 .724-3.1V20a1 1 0 0 0-1.417-.909l-.06.027A7 7 0 0 0 31 16.58V15a1 1 0 0 0-1.356-.934l-2.136.813a7 7 0 0 0-.25.1 7.77 7.77 0 0 0-1.868-4.893l-.63-.737a1 1 0 0 0-1.52 0l-.63.736a7.77 7.77 0 0 0-1.869 4.895 7 7 0 0 0-.249-.1l-2.136-.815A1 1 0 0 0 17 15v1.58c0 .886.167 1.744.476 2.538l-.059-.027A1 1 0 0 0 16 20v1.939a7 7 0 0 0 .724 3.1A1 1 0 0 0 16 26v1.939a7 7 0 0 0 4.079 6.36L23 35.642V38h2v-2.359l2.921-1.341a7 7 0 0 0 2.732-2.233zM44 24c0 11.046-8.954 20-20 20S4 35.046 4 24 12.954 4 24 4s20 8.954 20 20M24 11.542a5.77 5.77 0 0 1 1.121 4.859c-.434.422-.81.897-1.121 1.414a7 7 0 0 0-1.121-1.414A5.77 5.77 0 0 1 24 11.542m-1 10.007v-.128a5 5 0 0 0-3.22-4.673l-.78-.297v.128a5 5 0 0 0 3.22 4.673zm2 0 .78-.297A5 5 0 0 0 29 16.579v-.128l-.78.297A5 5 0 0 0 25 21.421zm0 4.558c0-1.372.8-2.619 2.046-3.191L30 21.56v.379a5 5 0 0 1-2.913 4.543L25 27.44zm-4.913-3.59A5 5 0 0 1 23 27.062v.38l-2.087-.959A5 5 0 0 1 18 21.94v-.38zM23 33.44v-.378a5 5 0 0 0-2.913-4.544L18 27.56v.379a5 5 0 0 0 2.913 4.543zm2 0 2.087-.958A5 5 0 0 0 30 27.94v-.38l-2.954 1.357A3.51 3.51 0 0 0 25 32.107z"
    clip-rule="evenodd"
  />
</svg>
